X: 1
T:G, D, E, Gracenote Exercise  "CYMRU"
M:6/8
L:1/8
Q:80
C:
S:
K:HP
| {g}A{d}A{e}A{g}c{d}c{e}c|
{g}B{d}B{e}B{g}c{d}c{e}c|
{g}A{d}A{e}A{g}c{d}c{e}c|  !
{g}B{d}B{e}B{g}A3| |
{g}A{d}A{e}A{g}c{d}c{e}c|
{g}B{d}B{e}B{g}c{d}c{e}c|  !
{g}A{d}A{e}A{g}B{d}B{e}B|
{g}G{d}G{e}G{g}A3|]
e2|  !
{g}A{d}A{e}A{g}c{d}c{e}c|
{g}B{d}B{e}B{g}c3|
{g}A{d}A{e}A{g}c{d}c{e}c|  !
{g}B{d}B{e}B{g}G3| |
{g}A{d}A{e}A{g}c{d}c{e}c|
{g}B{d}B{e}B{g}c3|  !
{g}A{d}A{e}A{g}B{d}B{e}B|
{g}c{d}c{e}c{g}B3|] |
{g}A{d}A{e}A{g}c{d}c{e}c|  !
{g}B{d}B{e}B{g}c{d}c{e}c|
{g}A{d}A{e}A{g}c{d}c{e}c|
{g}B{d}B{e}B{g}G{d}G{e}G| |  !
{g}A{d}A{e}A{g}c{d}c{e}c|
{g}B{d}B{e}B{g}c{d}c{e}c|
{g}A{d}A{e}A{g}B{d}B{e}B|  !
{g}c{d}c{e}c{g}A{d}A{e}A|] |
{g}A{d}A{e}Aa2A|
{g}B{d}B{e}B{g}c{d}c{e}c|  !
{g}A{d}A{e}Aa2A|
{g}B{d}B{e}B{g}G{d}G{e}G| |
{g}A{d}A{e}Aa2A|  !
{g}B{d}B{e}B{g}c{d}c{e}c|
{g}A{d}A{e}Aa2G|
{g}B{d}B{e}B{g}A{d}A{e}A|] |  !
{g}A{d}A{e}A{g}A{d}c{e}c|
{g}c{d}B{e}B{g}B{d}c{e}c|
{g}c{d}A{e}A{g}A{d}c{e}c|  !
{g}c{d}B{e}B{g}B{d}G{e}G| |
{g}G{d}A{e}A{g}A{d}c{e}c|
{g}c{d}B{e}B{g}B{d}c{e}c|  !
{g}c{d}A{e}A{g}A{d}B{e}B|
{g}B{d}c{e}c{g}c{d}A{e}A|]
